ultrasound/ui/components/usdc.svg

<svg width="16" height="17" viewBox="0 0 16 17" fill="none" xmlns="http://www.w3.org/2000/svg">
<g clip-path="url(#clip0_3113_1884)">
<path d="M8 16.5C12.4334 16.5 16 12.9334 16 8.5C16 4.06664 12.4334 0.5 8 0.5C3.56664 0.5 0 4.06664 0 8.5C0 12.9334 3.56664 16.5 8 16.5Z" fill="#2775CA"/>
<path d="M10.2 9.76665C10.2 8.60001 9.50004 8.20001 8.10004 8.03337C7.10004 7.90001 6.90004 7.63337 6.90004 7.16665C6.90004 6.69993 7.2334 6.40001 7.90004 6.40001C8.50004 6.40001 8.8334 6.60001 9.00004 7.10001C9.0334 7.20001 9.1334 7.26665 9.2334 7.26665H9.76668C9.90004 7.26665 10 7.16665 10 7.03337V7.00001C9.86668 6.26665 9.26668 5.70001 8.50004 5.63337V4.83337C8.50004 4.70001 8.40004 4.60001 8.2334 4.56665H7.7334C7.60004 4.56665 7.50004 4.66665 7.46668 4.83337V5.60001C6.46668 5.73337 5.8334 6.40001 5.8334 7.23337C5.8334 8.33337 6.50004 8.76665 7.90004 8.93337C8.8334 9.10001 9.1334 9.30001 9.1334 9.83337C9.1334 10.3667 8.66668 10.7334 8.0334 10.7334C7.16668 10.7334 6.86668 10.3667 6.76668 9.86665C6.7334 9.73337 6.6334 9.66665 6.5334 9.66665H5.96668C5.8334 9.66665 5.7334 9.76665 5.7334 9.90001V9.93337C5.86668 10.7667 6.40004 11.3667 7.50004 11.5334V12.3334C7.50004 12.4667 7.60004 12.5667 7.76668 12.6H8.26668C8.40004 12.6 8.50004 12.5 8.5334 12.3334V11.5334C9.5334 11.3667 10.2 10.6667 10.2 9.76665Z" fill="white"/>
<path d="M6.30004 13.2667C3.70004 12.3334 2.36668 9.43337 3.3334 6.86665C3.8334 5.46665 4.9334 4.40001 6.30004 3.90001C6.4334 3.83337 6.50004 3.73337 6.50004 3.56665V3.10001C6.50004 2.96665 6.4334 2.86665 6.30004 2.83337C6.26668 2.83337 6.20004 2.83337 6.16668 2.86665C3.00004 3.86665 1.26668 7.23337 2.26668 10.4C2.86668 12.2667 4.30004 13.7 6.16668 14.3C6.30004 14.3667 6.4334 14.3 6.46668 14.1667C6.50004 14.1334 6.50004 14.1 6.50004 14.0334V13.5667C6.50004 13.4667 6.40004 13.3334 6.30004 13.2667ZM9.8334 2.86665C9.70004 2.80001 9.56668 2.86665 9.5334 3.00001C9.50004 3.03337 9.50004 3.06665 9.50004 3.13337V3.60001C9.50004 3.73337 9.60004 3.86665 9.70004 3.93337C12.3 4.86665 13.6334 7.76665 12.6667 10.3334C12.1667 11.7334 11.0667 12.8 9.70004 13.3C9.56668 13.3667 9.50004 13.4667 9.50004 13.6334V14.1C9.50004 14.2334 9.56668 14.3334 9.70004 14.3667C9.7334 14.3667 9.80004 14.3667 9.8334 14.3334C13 13.3334 14.7334 9.96665 13.7334 6.80001C13.1334 4.90001 11.6667 3.46665 9.8334 2.86665Z" fill="white"/>
</g>
<defs>
<clipPath id="clip0_3113_1884">
<rect width="16" height="16" fill="white" transform="translate(0 0.5)"/>
</clipPath>
</defs>
</svg>

<svg width="16" height="17" fill="none" viewBox="0 0 16 17" xmlns="http://www.w3.org/2000/svg">
  <g clip-path="url(#a)">
    <path fill="#2775CA" d="M8 16.5c4.433 0 8-3.567 8-8s-3.567-8-8-8a7.98 7.98 0 0 0-8 8c0 4.433 3.567 8 8 8"/>
    <path fill="#fff" d="M10.2 9.767c0-1.167-.7-1.567-2.1-1.734-1-.133-1.2-.4-1.2-.866 0-.467.333-.767 1-.767.6 0 .933.2 1.1.7a.25.25 0 0 0 .233.167h.534c.133 0 .233-.1.233-.234V7a1.665 1.665 0 0 0-1.5-1.367v-.8c0-.133-.1-.233-.267-.266h-.5c-.133 0-.233.1-.266.266V5.6c-1 .133-1.634.8-1.634 1.633 0 1.1.667 1.534 2.067 1.7.933.167 1.233.367 1.233.9 0 .534-.466.9-1.1.9-.866 0-1.166-.366-1.266-.866-.034-.134-.134-.2-.234-.2h-.566c-.134 0-.234.1-.234.233v.033c.134.834.667 1.434 1.767 1.6v.8c0 .134.1.234.267.267h.5c.133 0 .233-.1.266-.267v-.8c1-.166 1.667-.866 1.667-1.766"/>
    <path fill="#fff" d="M6.3 13.267c-2.6-.934-3.933-3.834-2.967-6.4.5-1.4 1.6-2.467 2.967-2.967.133-.067.2-.167.2-.333V3.1c0-.133-.067-.233-.2-.267-.033 0-.1 0-.133.034-3.167 1-4.9 4.366-3.9 7.533a6 6 0 0 0 3.9 3.9c.133.067.266 0 .3-.133.033-.034.033-.067.033-.134v-.466c0-.1-.1-.234-.2-.3m3.533-10.4c-.133-.067-.266 0-.3.133-.033.033-.033.067-.033.133V3.6c0 .133.1.267.2.333 2.6.934 3.933 3.834 2.967 6.4A4.93 4.93 0 0 1 9.7 13.3c-.133.067-.2.167-.2.333v.467c0 .133.067.233.2.267.033 0 .1 0 .133-.034 3.167-1 4.9-4.366 3.9-7.533a6.05 6.05 0 0 0-3.9-3.933"/>
  </g>
  <defs>
    <clipPath id="a">
      <path fill="#fff" d="M0 .5h16v16H0z"/>
    </clipPath>
  </defs>
</svg>
